dist/images/svg/graph.svg

<svg width="967" height="207" viewBox="0 0 967 207" fill="none" xmlns="http://www.w3.org/2000/svg">
<line y1="-0.5" x2="946" y2="-0.5" transform="matrix(0.999996 -0.00270938 0.00592898 0.999982 10 200.999)" stroke="#F3F3F3"/>
<line y1="-0.5" x2="946" y2="-0.5" transform="matrix(0.999996 -0.00270938 0.00592898 0.999982 10 162.891)" stroke="#F3F3F3"/>
<line y1="-0.5" x2="946" y2="-0.5" transform="matrix(0.999996 -0.00270938 0.00592898 0.999982 10 124.783)" stroke="#F3F3F3"/>
<line y1="-0.5" x2="946" y2="-0.5" transform="matrix(0.999996 -0.00270938 0.00592898 0.999982 10 86.6743)" stroke="#F3F3F3"/>
<line y1="-0.5" x2="946" y2="-0.5" transform="matrix(0.999996 -0.00270938 0.00592898 0.999982 10 48.5659)" stroke="#F3F3F3"/>
<line y1="-0.5" x2="946" y2="-0.5" transform="matrix(0.999996 -0.00270938 0.00592898 0.999982 10 10.458)" stroke="#F3F3F3"/>
<g filter="url(#filter0_d_119_639)">
<path d="M11.4214 107.344C32.663 99.8085 86.5662 94.426 137.546 94.426C201.271 94.426 218.936 93.1342 264.142 84.7375C309.349 76.3407 380.699 55.3489 420.459 55.3489C460.218 55.3489 593.115 55.3489 623.615 55.3489C654.116 55.3489 771.762 46.9521 824.049 37.2636C876.336 27.575 920.998 9.16675 956.401 9.16675" stroke="#F3BC28" stroke-width="2"/>
</g>
<g filter="url(#filter1_d_119_639)">
<path d="M11.2278 192.792C31.9486 186.166 85.8227 166.668 135.553 166.668C197.715 166.668 213.654 174.051 257.752 166.668C301.85 159.285 415.018 160.989 453.803 160.989C492.588 160.989 629.132 160.989 658.885 160.989C688.638 160.989 785.335 147.359 836.34 138.841C887.345 130.322 920.275 129.47 954.81 129.47" stroke="#0085C0" stroke-width="2"/>
</g>
<g filter="url(#filter2_d_119_639)">
<path d="M14.2848 179.893C35.2542 171.867 89.7747 155.814 140.101 155.814C203.01 155.814 214.853 145.764 259.481 136.821C304.108 127.877 374.544 117.902 413.794 117.902C453.044 117.902 612.197 117.902 642.307 117.902C672.417 117.902 779.415 103.111 831.032 92.7914C882.649 82.472 921.899 73.1846 956.848 73.1846" stroke="#66BC4D" stroke-width="2"/>
</g>
<circle cx="10.6439" cy="106.885" r="4" fill="#F3BC28"/>
<circle cx="10.6439" cy="179.519" r="4" fill="#66BC4D"/>
<circle cx="10.6439" cy="191.437" r="4" fill="#0085C0"/>
<circle cx="954.668" cy="8" r="4" fill="#F3BC28"/>
<circle cx="954.668" cy="71.9443" r="4" fill="#66BC4D"/>
<circle cx="954.668" cy="128.784" r="4" fill="#0085C0"/>
<defs>
<filter id="filter0_d_119_639" x="0.968342" y="0.746372" width="965.551" height="120.357" filterUnits="userSpaceOnUse" color-interpolation-filters="sRGB">
<feFlood flood-opacity="0" result="BackgroundImageFix"/>
<feColorMatrix in="SourceAlpha" type="matrix" values="0 0 0 0 0 0 0 0 0 0 0 0 0 0 0 0 0 0 127 0" result="hardAlpha"/>
<feOffset dy="2.69832"/>
<feGaussianBlur stdDeviation="5.05935"/>
<feComposite in2="hardAlpha" operator="out"/>
<feColorMatrix type="matrix" values="0 0 0 0 0.952941 0 0 0 0 0.737255 0 0 0 0 0.156863 0 0 0 1 0"/>
<feBlend mode="normal" in2="BackgroundImageFix" result="effect1_dropShadow_119_639"/>
<feBlend mode="normal" in="SourceGraphic" in2="effect1_dropShadow_119_639" result="shape"/>
</filter>
<filter id="filter1_d_119_639" x="0.804585" y="121.05" width="964.124" height="85.5113" filterUnits="userSpaceOnUse" color-interpolation-filters="sRGB">
<feFlood flood-opacity="0" result="BackgroundImageFix"/>
<feColorMatrix in="SourceAlpha" type="matrix" values="0 0 0 0 0 0 0 0 0 0 0 0 0 0 0 0 0 0 127 0" result="hardAlpha"/>
<feOffset dy="2.69832"/>
<feGaussianBlur stdDeviation="5.05935"/>
<feComposite in2="hardAlpha" operator="out"/>
<feColorMatrix type="matrix" values="0 0 0 0 0 0 0 0 0 0.521569 0 0 0 0 0.752941 0 0 0 1 0"/>
<feBlend mode="normal" in2="BackgroundImageFix" result="effect1_dropShadow_119_639"/>
<feBlend mode="normal" in="SourceGraphic" in2="effect1_dropShadow_119_639" result="shape"/>
</filter>
<filter id="filter2_d_119_639" x="3.80861" y="64.7642" width="963.158" height="128.88" filterUnits="userSpaceOnUse" color-interpolation-filters="sRGB">
<feFlood flood-opacity="0" result="BackgroundImageFix"/>
<feColorMatrix in="SourceAlpha" type="matrix" values="0 0 0 0 0 0 0 0 0 0 0 0 0 0 0 0 0 0 127 0" result="hardAlpha"/>
<feOffset dy="2.69832"/>
<feGaussianBlur stdDeviation="5.05935"/>
<feComposite in2="hardAlpha" operator="out"/>
<feColorMatrix type="matrix" values="0 0 0 0 0.4 0 0 0 0 0.737255 0 0 0 0 0.301961 0 0 0 1 0"/>
<feBlend mode="normal" in2="BackgroundImageFix" result="effect1_dropShadow_119_639"/>
<feBlend mode="normal" in="SourceGraphic" in2="effect1_dropShadow_119_639" result="shape"/>
</filter>
</defs>
</svg>

<svg width="967" height="207" fill="none" xmlns="http://www.w3.org/2000/svg"><path transform="matrix(1 -.0027 .00593 .99998 10 200.999)" stroke="#F3F3F3" d="M0-.5h946"/><path transform="matrix(1 -.0027 .00593 .99998 10 162.891)" stroke="#F3F3F3" d="M0-.5h946"/><path transform="matrix(1 -.0027 .00593 .99998 10 124.783)" stroke="#F3F3F3" d="M0-.5h946"/><path transform="matrix(1 -.0027 .00593 .99998 10 86.674)" stroke="#F3F3F3" d="M0-.5h946"/><path transform="matrix(1 -.0027 .00593 .99998 10 48.566)" stroke="#F3F3F3" d="M0-.5h946"/><path transform="matrix(1 -.0027 .00593 .99998 10 10.458)" stroke="#F3F3F3" d="M0-.5h946"/><g filter="url(#a)"><path d="M11.421 107.344c21.242-7.535 75.145-12.918 126.125-12.918 63.725 0 81.39-1.292 126.596-9.689 45.207-8.396 116.557-29.388 156.317-29.388h203.156c30.501 0 148.147-8.397 200.434-18.085 52.287-9.689 96.949-28.097 132.352-28.097" stroke="#F3BC28" stroke-width="2"/></g><g filter="url(#b)"><path d="M11.228 192.792c20.72-6.626 74.595-26.124 124.325-26.124 62.162 0 78.101 7.383 122.199 0s157.266-5.679 196.051-5.679h205.082c29.753 0 126.45-13.63 177.455-22.148 51.005-8.519 83.935-9.371 118.47-9.371" stroke="#0085C0" stroke-width="2"/></g><g filter="url(#c)"><path d="M14.285 179.893c20.97-8.026 75.49-24.079 125.816-24.079 62.909 0 74.752-10.05 119.38-18.993 44.627-8.944 115.063-18.919 154.313-18.919h228.513c30.11 0 137.108-14.791 188.725-25.11 51.617-10.32 90.867-19.607 125.816-19.607" stroke="#66BC4D" stroke-width="2"/></g><circle cx="10.644" cy="106.885" r="4" fill="#F3BC28"/><circle cx="10.644" cy="179.519" r="4" fill="#66BC4D"/><circle cx="10.644" cy="191.437" r="4" fill="#0085C0"/><circle cx="954.668" cy="8" r="4" fill="#F3BC28"/><circle cx="954.668" cy="71.944" r="4" fill="#66BC4D"/><circle cx="954.668" cy="128.784" r="4" fill="#0085C0"/><defs><filter id="a" x=".968" y=".746" width="965.551" height="120.357" filterUnits="userSpaceOnUse" color-interpolation-filters="sRGB"><feFlood flood-opacity="0" result="BackgroundImageFix"/><feColorMatrix in="SourceAlpha" values="0 0 0 0 0 0 0 0 0 0 0 0 0 0 0 0 0 0 127 0" result="hardAlpha"/><feOffset dy="2.698"/><feGaussianBlur stdDeviation="5.059"/><feComposite in2="hardAlpha" operator="out"/><feColorMatrix values="0 0 0 0 0.952941 0 0 0 0 0.737255 0 0 0 0 0.156863 0 0 0 1 0"/><feBlend in2="BackgroundImageFix" result="effect1_dropShadow_119_639"/><feBlend in="SourceGraphic" in2="effect1_dropShadow_119_639" result="shape"/></filter><filter id="b" x=".805" y="121.05" width="964.124" height="85.511" filterUnits="userSpaceOnUse" color-interpolation-filters="sRGB"><feFlood flood-opacity="0" result="BackgroundImageFix"/><feColorMatrix in="SourceAlpha" values="0 0 0 0 0 0 0 0 0 0 0 0 0 0 0 0 0 0 127 0" result="hardAlpha"/><feOffset dy="2.698"/><feGaussianBlur stdDeviation="5.059"/><feComposite in2="hardAlpha" operator="out"/><feColorMatrix values="0 0 0 0 0 0 0 0 0 0.521569 0 0 0 0 0.752941 0 0 0 1 0"/><feBlend in2="BackgroundImageFix" result="effect1_dropShadow_119_639"/><feBlend in="SourceGraphic" in2="effect1_dropShadow_119_639" result="shape"/></filter><filter id="c" x="3.809" y="64.764" width="963.158" height="128.88" filterUnits="userSpaceOnUse" color-interpolation-filters="sRGB"><feFlood flood-opacity="0" result="BackgroundImageFix"/><feColorMatrix in="SourceAlpha" values="0 0 0 0 0 0 0 0 0 0 0 0 0 0 0 0 0 0 127 0" result="hardAlpha"/><feOffset dy="2.698"/><feGaussianBlur stdDeviation="5.059"/><feComposite in2="hardAlpha" operator="out"/><feColorMatrix values="0 0 0 0 0.4 0 0 0 0 0.737255 0 0 0 0 0.301961 0 0 0 1 0"/><feBlend in2="BackgroundImageFix" result="effect1_dropShadow_119_639"/><feBlend in="SourceGraphic" in2="effect1_dropShadow_119_639" result="shape"/></filter></defs></svg>
